fs/cast_20_filled.svg

<svg viewBox="0 0 20 20" fill="none" xmlns="http://www.w3.org/2000/svg" height="1em" width="1em">
  <path d="M3.5 4C2.67157 4 2 4.67157 2 5.5V14.5C2 15.3284 2.67157 16 3.5 16H16.5C17.3284 16 18 15.3284 18 14.5V5.5C18 4.67157 17.3284 4 16.5 4H3.5ZM3.99731 8C3.99731 7.72386 4.22117 7.5 4.49731 7.5C7.81251 7.5 10.5 10.1875 10.5 13.5027C10.5 13.7788 10.2761 14.0027 10 14.0027C9.72386 14.0027 9.5 13.7788 9.5 13.5027C9.5 10.7398 7.26022 8.5 4.49731 8.5C4.22117 8.5 3.99731 8.27614 3.99731 8ZM4.49731 10C6.4317 10 7.99984 11.5681 7.99984 13.5025C7.99984 13.7787 7.77598 14.0025 7.49984 14.0025C7.2237 14.0025 6.99984 13.7787 6.99984 13.5025C6.99984 12.1204 5.87942 11 4.49731 11C4.22117 11 3.99731 10.7761 3.99731 10.5C3.99731 10.2239 4.22117 10 4.49731 10ZM4.74945 13.9989C4.33554 13.9989 4 13.6634 4 13.2495C4 12.8355 4.33554 12.5 4.74945 12.5C5.16336 12.5 5.4989 12.8355 5.4989 13.2495C5.4989 13.6634 5.16336 13.9989 4.74945 13.9989Z" fill="#212121"/>
</svg>

<svg viewBox="0 0 20 20" fill="none" xmlns="http://www.w3.org/2000/svg" height="1em" width="1em">
  <path d="M3.5 4A1.5 1.5 0 0 0 2 5.5v9A1.5 1.5 0 0 0 3.5 16h13a1.5 1.5 0 0 0 1.5-1.5v-9A1.5 1.5 0 0 0 16.5 4h-13Zm.497 4a.5.5 0 0 1 .5-.5 6.003 6.003 0 0 1 6.003 6.003.5.5 0 0 1-1 0A5.003 5.003 0 0 0 4.497 8.5a.5.5 0 0 1-.5-.5Zm.5 2A3.503 3.503 0 0 1 8 13.502a.5.5 0 1 1-1 0A2.503 2.503 0 0 0 4.497 11a.5.5 0 0 1 0-1Zm.252 3.999a.75.75 0 1 1 0-1.499.75.75 0 0 1 0 1.499Z" fill="#212121"/>
</svg>
